icons/monero.svg

<?xml version="1.0" encoding="UTF-8" standalone="no"?>
<svg width="256px" height="256px" viewBox="0 0 256 256" version="1.1" xmlns="http://www.w3.org/2000/svg" xmlns:xlink="http://www.w3.org/1999/xlink" preserveAspectRatio="xMidYMid">
	<g>
		<path d="M127.9983,0.0005 C57.3183,0.0005 0.0003,57.3155 0.0003,127.9975 C0.0003,142.1255 2.2893,155.7145 6.5183,168.4275 L44.7993,168.4275 L44.7993,60.7335 L127.9983,143.9335 L211.1973,60.7335 L211.1973,168.4275 L249.4793,168.4275 C253.7103,155.7145 256.0003,142.1255 256.0003,127.9975 C256.0003,57.3155 198.6813,0.0005 127.9983,0.0005" fill="#FF6600"></path>
		<path d="M108.8673,163.0617 L72.5573,126.7507 L72.5573,194.5157 L58.6773,194.5157 L44.7973,194.5157 L18.6233,194.5157 C41.0923,231.3787 81.6743,255.9967 127.9963,255.9967 C174.3183,255.9967 214.9033,231.3787 237.3703,194.5157 L211.1933,194.5157 L186.3673,194.5157 L183.4373,194.5157 L183.4373,126.7507 L147.1263,163.0617 L127.9963,182.1897 L108.8693,163.0617 L108.8673,163.0617 Z" fill="#4C4C4C"></path>
	</g>
</svg>

<svg xmlns="http://www.w3.org/2000/svg" viewBox="0 0 256 255.996">
  <path fill="#f60" d="M127.998 0C57.318 0 0 57.315 0 127.997c0 14.128 2.289 27.717 6.518 40.43h38.281V60.733l83.199 83.2 83.199-83.2v107.694h38.282c4.231-12.713 6.521-26.302 6.521-40.43C256 57.315 198.681 0 127.998 0"/>
  <path fill="#4c4c4c" d="m108.867 163.061-36.31-36.31v67.764H18.623c22.469 36.863 63.051 61.481 109.373 61.481s86.907-24.618 109.374-61.48h-53.933V126.75l-36.311 36.311-19.13 19.128-19.127-19.128z"/>
</svg>
